X:387
T:Sally Goodin (Chord Comping)
C:
N:Transcribed by Brian Summers
R:bluegrass
L:1/8
Q:1/4=120
M:4/4
K:A
|: [EA,][acEA,] C[AEC] D[dFD] ^D[fAD] | E[acAE] C[cFC] B,[dFB,] G,[BEG,] :| z8 | 
z8 | z8 | z8 | z8 | z8 | z8 | z8 | z8 | z8 | z8 | z8 | z8 | z8 | z8 | 
K:C
z8 | 


